src/assets/logo/helpnoweatlater.svg

<svg xmlns="http://www.w3.org/2000/svg" width="417.515" height="464.398" overflow="visible"><path fill="none" stroke="#000" stroke-width="8" d="M58.603 74.097l49.251 92.472M90.875 62.915l29.023 101.781"/><path fill="none" d="M127.625 394.383c-15.924-4.566-31.848-21.313-44.311-32.729-16.617-15.223-29.771-28.922-40.849-49.473C25.847 282.499 10.615 249.008 3 215.519c9.001-4.567 24.925 6.089 31.156 12.939 9 9.894 10.385 24.356 18.001 35.772 13.155 22.072 32.541 38.818 55.389 43.385-15.924-4.566-35.31-29.685-42.234-45.668-6.231-12.939-6.923-21.311 9.693-19.027 10.385 1.521 12.462 7.61 20.078 14.461 31.849 30.445 77.545 15.982 99.7 62.412 22.848 47.189 7.616 97.424-12.462 141.568"/><path d="M128.661 391.583c-16.741-5.161-29.522-19.29-41.994-30.868-12.479-11.586-24.47-23.42-34.117-37.537-10.857-15.888-19.328-33.994-27.177-51.513C17.194 253.413 10.45 234.5 5.938 215l-1.658 3.215c9.492-4.164 22.824 6.658 28.604 13.336 4.153 4.797 6.411 11.116 8.651 16.956 2.476 6.453 5.175 12.459 8.755 18.377 12.779 21.125 32.387 38.501 56.973 43.703 3.331.705 4.509-4.775 1.318-5.771-10.766-3.358-19.158-12.594-26.083-21.062-7.07-8.645-12.944-18.361-16.96-28.795-1.008-2.619-2.727-7.309.574-8.876 4.974-2.364 12.899.308 16.915 3.349 4.187 3.171 7.412 7.784 11.324 11.312 4.128 3.724 8.59 6.921 13.409 9.689 17.157 9.856 37.17 12.501 54.945 20.895 24.044 11.354 35.311 36.633 39.242 61.761 5.773 36.901-7.43 74.115-22.426 107.237-1.592 3.518 4.022 5.555 5.599 2.072 11.967-26.435 21.969-54.241 23.828-83.426 1.679-26.356-4.468-56.027-21.86-76.619-13.028-15.423-32.467-21.003-50.985-26.797-9.752-3.053-19.381-6.521-28.112-11.915-4.703-2.905-8.931-6.459-12.868-10.324-3.82-3.75-6.955-8.063-11.68-10.761-5.673-3.237-18.675-5.665-23.353.737-4.74 6.487.61 15.863 3.455 21.979 4.541 9.762 11.108 18.776 18.201 26.82 6.681 7.576 14.924 15.253 24.764 18.323l1.318-5.771c-26.619-5.633-48.498-28.307-58.638-52.876-4.747-11.502-8.354-22.208-18.287-30.326-7.524-6.149-19.339-12.938-29.184-8.619-1.163.511-1.948 1.959-1.658 3.215 4.635 20.033 11.604 39.404 19.919 58.19 8.011 18.099 17.016 36.326 28.017 52.812 10.043 15.051 23.181 27.315 36.319 39.588 12.514 11.689 25.457 25.37 42.272 30.556 3.671 1.13 5.751-4.466 2.073-5.601z"/><path fill="none" d="M289.97 394.465c15.926-4.566 31.85-21.311 44.313-32.727 16.615-15.225 29.771-28.924 40.85-49.474 16.617-29.684 31.848-63.173 39.463-96.663-9-4.566-24.924 6.09-31.156 12.939-9 9.895-10.385 24.355-18 35.772-13.156 22.073-32.541 38.817-55.389 43.385 15.924-4.567 35.309-29.685 42.232-45.668 6.232-12.938 6.924-21.312-9.691-19.028-10.387 1.522-12.463 7.611-20.08 14.461-31.848 30.445-77.545 15.984-99.699 62.412-22.849 47.189-7.616 97.424 12.463 141.568"/><path d="M290.488 397.405c16.906-5.213 29.868-18.551 42.446-30.348 12.949-12.146 25.695-24.203 35.922-38.821 11.274-16.116 20.003-34.609 28.104-52.477 8.622-19.017 15.725-38.766 20.434-59.121.385-1.661-.129-3.119-1.763-3.836-9.576-4.199-20.651 2.522-28.149 8.105-10.078 7.503-14.193 18.413-18.6 29.735-9.828 25.259-32.304 48.393-59.351 54.116l1.037 5.879c9.775-3.051 17.711-10.135 24.47-17.601 7.597-8.392 14.167-17.731 19.114-27.928 3.028-6.24 7.973-15.398 3.185-21.953-4.872-6.67-18.964-3.396-24.467.258-4.324 2.872-7.458 7.093-11.132 10.698a73.194 73.194 0 01-13.826 10.646c-8.738 5.205-18.504 8.441-28.165 11.445-18.838 5.856-37.096 11.874-50.252 27.448-17.119 20.268-22.138 49.943-20.815 75.638 1.495 29.066 12.013 57.182 23.898 83.435 1.587 3.504 6.981.946 5.393-2.563-12.332-27.239-22.788-56.126-23.584-86.332-.696-26.453 6.995-57.625 28.412-74.938 15.498-12.528 36.427-15.384 54.536-22.444 9.563-3.729 18.492-8.905 26.127-15.791 7.953-7.172 15.594-18.916 28.267-14.389 7.11 2.539-8.596 26.462-10.734 29.63-7.451 11.037-18.188 24.718-31.463 28.86-3.554 1.109-2.83 6.697 1.037 5.879 24.439-5.173 43.558-22.494 56.484-43.24 6.856-11.002 9.349-24.266 16.883-34.784 5.368-7.495 19.969-18.446 29.623-14.212l-1.763-3.836c-4.438 19.176-11.049 37.712-18.925 55.73-7.757 17.747-16.507 35.585-27.091 51.832-9.465 14.527-21.817 26.645-34.506 38.325-12.436 11.448-25.171 25.939-41.823 31.072-3.627 1.123-2.635 7.015 1.037 5.883z"/><path fill="none" stroke="#000" stroke-width="6" d="M29.383 163.04s.339.59 1.004 1.689c13.987 23.103 172.157 271.285 355.562-1.689M29.383 165.04h356.566"/><g><path d="M219.194 100.448c-17.148 29.299-1.405 43.949-3.754 43.949-.838 0-19.771-14.65-2.621-43.949 17.148-29.299 1.404-43.948 3.753-43.948.838 0 19.772 14.648 2.622 43.948z"/><path fill="none" stroke="#000" d="M219.194 100.448c-17.148 29.299-1.405 43.949-3.754 43.949-.838 0-19.771-14.65-2.621-43.949 17.148-29.299 1.404-43.948 3.753-43.948.838 0 19.772 14.648 2.622 43.948z"/></g><g><path d="M256.194 70.447c-17.149 46.633-1.404 69.95-3.754 69.95-.838 0-19.771-23.316-2.621-69.95C266.968 23.816 251.224.5 253.572.5c.839 0 19.771 23.316 2.622 69.947z"/><path fill="none" stroke="#000" d="M256.194 70.447c-17.149 46.633-1.404 69.95-3.754 69.95-.838 0-19.771-23.316-2.621-69.95C266.968 23.816 251.224.5 253.572.5c.839 0 19.771 23.316 2.622 69.947z"/></g></svg>

<?xml version="1.0" encoding="UTF-8" standalone="no"?>
<!DOCTYPE svg PUBLIC "-//W3C//DTD SVG 1.1//EN" "http://www.w3.org/Graphics/SVG/1.1/DTD/svg11.dtd">
<svg width="100%" height="100%" viewBox="0 0 418 465" version="1.1" xmlns="http://www.w3.org/2000/svg" xmlns:xlink="http://www.w3.org/1999/xlink" xml:space="preserve" xmlns:serif="http://www.serif.com/" style="fill-rule:evenodd;clip-rule:evenodd;">
    <path d="M58.603,74.097L107.854,166.569" style="fill:none;fill-rule:nonzero;stroke:white;stroke-width:8px;"/>
    <path d="M90.875,62.915L119.898,164.696" style="fill:none;fill-rule:nonzero;stroke:white;stroke-width:8px;"/>
    <g>
        <g>
            <g>
                <path d="M127.625,394.383C111.701,389.817 95.777,373.07 83.314,361.654C66.697,346.431 53.543,332.732 42.465,312.181C25.847,282.499 10.615,249.008 3,215.519C12.001,210.952 27.925,221.608 34.156,228.458C43.156,238.352 44.541,252.814 52.157,264.23C65.312,286.302 84.698,303.048 107.546,307.615C91.622,303.049 72.236,277.93 65.312,261.947C59.081,249.008 58.389,240.636 75.005,242.92C85.39,244.441 87.467,250.53 95.083,257.381C126.932,287.826 172.628,273.363 194.783,319.793C217.631,366.982 202.399,417.217 182.321,461.361" style="fill:none;fill-rule:nonzero;"/>
                <path d="M128.661,391.583C111.92,386.422 99.139,372.293 86.667,360.715C74.188,349.129 62.197,337.295 52.55,323.178C41.693,307.29 33.222,289.184 25.373,271.665C17.194,253.413 10.45,234.5 5.938,215C5.385,216.072 4.833,217.144 4.28,218.215C13.772,214.051 27.104,224.873 32.884,231.551C37.037,236.348 39.295,242.667 41.535,248.507C44.011,254.96 46.71,260.966 50.29,266.884C63.069,288.009 82.677,305.385 107.263,310.587C110.594,311.292 111.772,305.812 108.581,304.816C97.815,301.458 89.423,292.222 82.498,283.754C75.428,275.109 69.554,265.393 65.538,254.959C64.53,252.34 62.811,247.65 66.112,246.083C71.086,243.719 79.011,246.391 83.027,249.432C87.214,252.603 90.439,257.216 94.351,260.744C98.479,264.468 102.941,267.665 107.76,270.433C124.917,280.289 144.93,282.934 162.705,291.328C186.749,302.682 198.016,327.961 201.947,353.089C207.72,389.99 194.517,427.204 179.521,460.326C177.929,463.844 183.543,465.881 185.12,462.398C197.087,435.963 207.089,408.157 208.948,378.972C210.627,352.616 204.48,322.945 187.088,302.353C174.06,286.93 154.621,281.35 136.103,275.556C126.351,272.503 116.722,269.035 107.991,263.641C103.288,260.736 99.06,257.182 95.123,253.317C91.303,249.567 88.168,245.254 83.443,242.556C77.77,239.319 64.768,236.891 60.09,243.293C55.35,249.78 60.7,259.156 63.545,265.272C68.086,275.034 74.653,284.048 81.746,292.092C88.427,299.668 96.67,307.345 106.51,310.415C106.949,308.491 107.388,306.567 107.828,304.644C81.209,299.011 59.33,276.337 49.19,251.768C44.443,240.266 40.836,229.56 30.903,221.442C23.379,215.293 11.564,208.504 1.719,212.823C0.556,213.334 -0.229,214.782 0.061,216.038C4.696,236.071 11.665,255.442 19.98,274.228C27.991,292.327 36.996,310.554 47.997,327.04C58.04,342.091 71.178,354.355 84.316,366.628C96.83,378.317 109.773,391.998 126.588,397.184C130.259,398.314 132.339,392.718 128.661,391.583Z" style="fill:white;fill-rule:nonzero;"/>
            </g>
        </g>
        <g>
            <g>
                <path d="M289.97,394.465C305.896,389.899 321.82,373.154 334.283,361.738C350.898,346.513 364.054,332.814 375.133,312.264C391.75,282.58 406.981,249.091 414.596,215.601C405.596,211.035 389.672,221.691 383.44,228.54C374.44,238.435 373.055,252.895 365.44,264.312C352.284,286.385 332.899,303.129 310.051,307.697C325.975,303.13 345.36,278.012 352.283,262.029C358.515,249.091 359.207,240.717 342.592,243.001C332.205,244.523 330.129,250.612 322.512,257.462C290.664,287.907 244.967,273.446 222.813,319.874C199.964,367.063 215.197,417.298 235.276,461.442" style="fill:none;fill-rule:nonzero;"/>
                <path d="M290.488,397.405C307.394,392.192 320.356,378.854 332.934,367.057C345.883,354.911 358.629,342.854 368.856,328.236C380.13,312.12 388.859,293.627 396.96,275.759C405.582,256.742 412.685,236.993 417.394,216.638C417.779,214.977 417.265,213.519 415.631,212.802C406.055,208.603 394.98,215.324 387.482,220.907C377.404,228.41 373.289,239.32 368.882,250.642C359.054,275.901 336.578,299.035 309.531,304.758C309.877,306.718 310.222,308.677 310.568,310.637C320.343,307.586 328.279,300.502 335.038,293.036C342.635,284.644 349.205,275.305 354.152,265.108C357.18,258.868 362.125,249.71 357.337,243.155C352.465,236.485 338.373,239.759 332.87,243.413C328.546,246.285 325.412,250.506 321.738,254.111C317.565,258.206 312.931,261.767 307.912,264.757C299.174,269.962 289.408,273.198 279.747,276.202C260.909,282.058 242.651,288.076 229.495,303.65C212.376,323.918 207.357,353.593 208.68,379.288C210.175,408.354 220.693,436.47 232.578,462.723C234.165,466.227 239.559,463.669 237.971,460.16C225.639,432.921 215.183,404.034 214.387,373.828C213.691,347.375 221.382,316.203 242.799,298.89C258.297,286.362 279.226,283.506 297.335,276.446C306.898,272.717 315.827,267.541 323.462,260.655C331.415,253.483 339.056,241.739 351.729,246.266C358.839,248.805 343.133,272.728 340.995,275.896C333.544,286.933 322.807,300.614 309.532,304.756C305.978,305.865 306.702,311.453 310.569,310.635C335.008,305.462 354.127,288.141 367.053,267.395C373.909,256.393 376.402,243.129 383.936,232.611C389.304,225.116 403.905,214.165 413.559,218.399C412.971,217.12 412.383,215.841 411.796,214.563C407.358,233.739 400.747,252.275 392.871,270.293C385.114,288.04 376.364,305.878 365.78,322.125C356.315,336.652 343.963,348.77 331.274,360.45C318.838,371.898 306.103,386.389 289.451,391.522C285.824,392.645 286.816,398.537 290.488,397.405Z" style="fill:white;fill-rule:nonzero;"/>
            </g>
        </g>
    </g>
    <path d="M29.383,163.04C29.383,163.04 29.722,163.63 30.387,164.729C44.374,187.832 202.544,436.014 385.949,163.04" style="fill:none;fill-rule:nonzero;stroke:white;stroke-width:6px;"/>
    <path d="M29.383,165.04L385.949,165.04" style="fill-rule:nonzero;stroke:white;stroke-width:6px;"/>
    <g>
        <path d="M219.194,100.448C202.046,129.747 217.789,144.397 215.44,144.397C214.602,144.397 195.669,129.747 212.819,100.448C229.967,71.149 214.223,56.5 216.572,56.5C217.41,56.5 236.344,71.148 219.194,100.448Z" style="fill:white;fill-rule:nonzero;"/>
        <path d="M219.194,100.448C202.046,129.747 217.789,144.397 215.44,144.397C214.602,144.397 195.669,129.747 212.819,100.448C229.967,71.149 214.223,56.5 216.572,56.5C217.41,56.5 236.344,71.148 219.194,100.448Z" style="fill:white;fill-rule:nonzero;stroke:white;stroke-width:1px;"/>
    </g>
    <g>
        <path d="M256.194,70.447C239.045,117.08 254.79,140.397 252.44,140.397C251.602,140.397 232.669,117.081 249.819,70.447C266.968,23.816 251.224,0.5 253.572,0.5C254.411,0.5 273.343,23.816 256.194,70.447Z" style="fill:white;fill-rule:nonzero;"/>
        <path d="M256.194,70.447C239.045,117.08 254.79,140.397 252.44,140.397C251.602,140.397 232.669,117.081 249.819,70.447C266.968,23.816 251.224,0.5 253.572,0.5C254.411,0.5 273.343,23.816 256.194,70.447Z" style="fill:white;fill-rule:nonzero;"/>
    </g>
</svg>
